X:1
T:Title
%%score { ( 1 4 5 ) | ( 2 3 ) }
L:1/8
M:4/4
K:C
V:1 treble nm="Grand Piano"
V:4 treble 
V:5 treble 
V:2 bass 
V:3 bass 
V:1
 z4 z z/[Q:1/4=100] C/ C>E | [CE]>G [EG]>[Gc] [Ac]3- [Ac]/B/ | [FA]6[K:bass] z2[K:treble] | %3
 [DF]>A [FA]>[GB] [GB]3- [GB]/A/ | [EG]6[K:bass][K:treble] z2 | [CE]>G [DF]>E D2 ^C>E | %6
 z2 G,2 z z/ F/ E>D | C>E D>[K:bass]C B,2 z z/ E/ | C6 z2 |] %9
V:2
 z4 z2 z z/ C/ | z z/ E/ [C,E,G,]2 [E,G,C]2 z z/ G/ | F,,2 C,2 z z/ D/ D>D | %3
 z z/ F/ [D,F,G,]2 [F,G,B,]2 z z/ F/ | C,,2 C,2 z z/[K:treble] F/ E>[K:bass]D | %5
 z z/ E/ [C,E,G,]2 [F,G,B,]2 z2 | F,,2 [D,F,]2 [F,G,]2 z2 | C,,2 [C,E,G,]2 [D,F,G,]2 z2 | %8
 [C,E,G,]2 G,,2 C,,2 z2 |] %9
V:3
 x8 | C,,2 z2 z2 C,2 | z4 F,2 z2 | G,,2 z2 z2 D,2 | z4 E,2[K:treble] z2[K:bass] | C,,2 z2 z4 | x8 | %7
 x8 | x8 |] %9
V:4
 x8 | x8 | z2[K:bass] [F,A,]2 [A,C]2 z z/[K:treble] F/ | x8 | %4
 z2[K:bass] [E,G,]2 z z/[K:treble] A/ G>F | x8 | D6 z2 | z4[K:bass] z2 G,,2 | x8 |] %9
V:5
 x8 | x8 | x2[K:bass] x11/2[K:treble] x/ | x8 | z4[K:bass] [G,C]2[K:treble] z2 | x8 | z4 B,2 z2 | %7
 x7/2[K:bass] x9/2 | x8 |] %9

